X:1
T: Lady Charlotte Bruce
C:William Shepherd
R:Strathspey
Q: 128
K:A
M:4/4
L:1/16
|:E2|A3B c3A e3c A3E|F2Bc dcBA GB3 B3c|A3B c3A e3c A3E|F2Bc BAGF EA3 A2E2|
A3B c3A e3c A3E|F2Bc dcBA GB3 B3c|A3B c3A e3c A3E|F2Bc BAGF EA3 A2c2|
A3c e3c a3c e3c|f3d e3A GB3 B3c|A3c e3c a3c e3c|f3d e3E FA3 A3c|
A3c e3a agfg a2e2|f3d c2A2 BAGF EDCB,|C3A D3B E3c F3d|dcBA GFED CA,3 A,2:|
